X: 26472
T: Mi Pequena Estrella
R: waltz
M: 3/4
K: Eminor
GA|B4 AG|F4EF|-F/G3/2 GF ED|
[1 B,4 GA|B4AG|A2 d3F|-FG -G4|G6:|
[2 B,4 B,A,|B,2 D2 G2|E/F3/2F2ED|E6-|E4 Bc||
|:d4 cB|A4GA|B3A GF|
[1 F2E2Bc|d4cB|A2d3F|F/G3/2 -G4|-G3 A Bc:|
[2 F2E2DC|B,2D2G2|E/F3/2F2ED|E6-|E6||
d3c cB|d3c cB|B3G GE|A2B2c2|
d3c cB|d3c cB|G4GE|A2B2c2-|c6||

